X:1
T:Harvest Home [1] Hornpipe
M:C|
L:1/8
R:Hornpipe
B:Milne – Middleton’s Selection of Strathspeys, Reels &c. for the Violin (1870, p. 44)
Z:AK/Fiddler’s Companion
K:D
(F>E)|D>AF>A D>AF>A|d>ef>e d>cB>A|e>Af>A g>Af>A|(3efd (3cdB (3ABG (3FGE|
D>AF>A D>AF>A|d>ef>e d>cB>A|e>Af>A g>Ae>c|d2f2d2:|
|:cd|e>A A/A/A/A/ f>A A/A/A/A/|g>A A/A/A/A/ f>A A/A/A/A/|eAfA gAfA|(3efd (3cdB (3ABG (3FGE|
D>d (3ddd (c>d)e>c|D>d (3ddd c>de>c|d>fa>f b>ge>c|d2f2d2:|]

